assets/img/braze_icons/globe-slated-01.svg

<svg fill="none" height="24" viewBox="0 0 24 24" width="24" xmlns="http://www.w3.org/2000/svg"><path d="m19.3387 1.66106c-.3905-.39053-1.0237-.39053-1.4142 0-.3905.39052-.3905 1.02369 0 1.41421 4.0987 4.09873 4.1005 10.74293.0053 14.84393-.0017.0017-.0035.0035-.0053.0052-3.8619 3.862-9.98469 4.0867-14.10891.6739l1.42244-1.4224c1.44732 1.1423 3.27503 1.8241 5.26197 1.8241 4.6944 0 8.5-3.8056 8.5-8.5 0-4.69442-3.8056-8.5-8.5-8.5-4.69442 0-8.5 3.80558-8.5 8.5 0 1.9868.68165 3.8144 1.82385 5.2617l-1.61384 1.6138c-.08322.0831-.18585.1857-.26899.285-.09935.1187-.22374.2926-.29592.5313-.09438.3122-.08243.6606.03314.9656.08563.226.21466.3877.32356.5022.08815.0926.19461.1852.27727.2572l.01732.0151c4.90912 4.2777 12.36101 4.082 17.03651-.5875.002-.0018.0039-.0038.0058-.0057 4.8816-4.8815 4.8816-12.79609 0-17.67764z" fill="#801ed7"/></svg>

<svg width="24" height="24" viewBox="0 0 24 24" fill="none" xmlns="http://www.w3.org/2000/svg">
<path d="M19.3387 1.66106C18.9482 1.27053 18.315 1.27053 17.9245 1.66106C17.534 2.05158 17.534 2.68475 17.9245 3.07527C22.0232 7.174 22.025 13.8182 17.9298 17.9192C17.9281 17.9209 17.9263 17.9227 17.9245 17.9244C14.0626 21.7864 7.93981 22.0111 3.81559 18.5983L5.23803 17.1759C6.68535 18.3182 8.51306 19 10.5 19C15.1944 19 19 15.1944 19 10.5C19 5.80558 15.1944 2 10.5 2C5.80558 2 2 5.80558 2 10.5C2 12.4868 2.68165 14.3144 3.82385 15.7617L2.21001 17.3755C2.12679 17.4586 2.02416 17.5612 1.94102 17.6605C1.84167 17.7792 1.71728 17.9531 1.6451 18.1918C1.55072 18.504 1.56267 18.8524 1.67824 19.1574C1.76387 19.3834 1.8929 19.5451 2.0018 19.6596C2.08995 19.7522 2.19641 19.8448 2.27907 19.9168L2.29639 19.9319C7.20551 24.2096 14.6574 24.0139 19.3329 19.3444C19.3349 19.3426 19.3368 19.3406 19.3387 19.3387C24.2203 14.4572 24.2203 6.54261 19.3387 1.66106Z" fill="#801ED7"/>
</svg>
